next/icons/gw2t.svg

<?xml version="1.0" encoding="UTF-8"?>
<svg width="16px" height="16px" viewBox="0 0 16 16" version="1.1" xmlns="http://www.w3.org/2000/svg" xmlns:xlink="http://www.w3.org/1999/xlink">
    <title>gw2t</title>
    <g id="gw2t" stroke="none" stroke-width="1" fill="none" fill-rule="evenodd">
        <path d="M3.84037119,2.5 L12.1596288,2.5 C12.4783403,2.5 12.7779637,2.6519204 12.9663155,2.90902071 L15.507094,6.37718329 C15.7925676,6.76685484 15.7586869,7.30488695 15.4265857,7.65566883 L8.72617847,14.732974 C8.34647926,15.1340313 7.71355105,15.1513454 7.31249376,14.7716462 C7.29925286,14.7591105 7.28635729,14.7462149 7.27382153,14.732974 L0.573414273,7.65566883 C0.241313085,7.30488695 0.20743235,6.76685484 0.492906011,6.37718329 L3.03368446,2.90902071 C3.22203634,2.6519204 3.52165972,2.5 3.84037119,2.5 Z" id="Path-2" fill="#B7000D"></path>
    </g>
</svg>

<svg xmlns="http://www.w3.org/2000/svg" width="16" height="16" fill="none" viewBox="0 0 16 16">
  <path fill="#b7000d" fill-rule="evenodd" d="M3.84 2.5h8.32a1 1 0 0 1 .806.409l2.541 3.468a1 1 0 0 1-.08 1.279l-6.7 7.077a1 1 0 0 1-1.453 0l-6.7-7.077a1 1 0 0 1-.081-1.279l2.54-3.468A1 1 0 0 1 3.84 2.5Z" clip-rule="evenodd"/>
</svg>
